assets/img/star.svg

<svg width="20" height="18" viewBox="0 0 20 18" fill="none" xmlns="http://www.w3.org/2000/svg">
<path d="M13.2362 5.1372L18.2257 5.86181C18.6389 5.91992 18.9862 6.20703 19.1181 6.60009C19.25 6.99658 19.1424 7.42724 18.8438 7.72118L15.2257 11.2143L16.0799 16.2251C16.1493 16.6352 15.9792 17.0522 15.632 17.2949C15.2882 17.5376 14.8334 17.5684 14.4618 17.3735L10.0035 15.0322L5.54865 17.3735C5.17365 17.5684 4.71879 17.5376 4.37504 17.2949C4.03129 17.0522 3.85768 16.6352 3.9306 16.2251L4.78476 11.2143L1.16601 7.72118C0.867054 7.42724 0.760804 6.99658 0.892054 6.60009C1.02296 6.20703 1.36914 5.91992 1.78546 5.86181L6.77087 5.1372L9.00698 0.614203C9.19101 0.237679 9.5799 -0.00134277 10.0035 -0.00134277C10.4306 -0.00134277 10.8195 0.237679 11.0035 0.614203L13.2362 5.1372Z" fill="#FF8F52"/>
</svg>

<svg width="20" height="18" fill="none" xmlns="http://www.w3.org/2000/svg"><path d="m13.236 5.137 4.99.725a1.086 1.086 0 0 1 .618 1.86l-3.618 3.492.854 5.011c.07.41-.1.827-.448 1.07a1.128 1.128 0 0 1-1.17.078l-4.458-2.34-4.455 2.34c-.375.195-.83.165-1.174-.078a1.08 1.08 0 0 1-.444-1.07l.854-5.01L1.166 7.72a1.087 1.087 0 0 1 .62-1.86l4.985-.724L9.007.614C9.191.238 9.58 0 10.004 0c.427 0 .816.239 1 .615l2.232 4.523Z" fill="#FF8F52"/></svg>
